;FLAVOR:Marlin
;TIME:7130
;Filament used: 3.95836m
;Layer height: 0.2
;MINX:26.93
;MINY:13.343
;MINZ:0.2
;MAXX:206.928
;MAXY:225.344
;MAXZ:15.6
;Generated with Cura_SteamEngine 4.13.1
M140 S60
M105
M190 S60
M104 S200
M105
M109 S200
M82 ;absolute extrusion mode
; Ender 3 Custom Start G-code
G92 E0 ; Reset Extruder
G28 ; Home all axes
G29; Home?
G1 Z2.0 F3000 ; Move Z Axis up little to prevent scratching of Heat Bed
G1 X0.1 Y20 Z0.3 F5000.0 ; Move to start position
G1 X0.1 Y200.0 Z0.3 F1500.0 E15 ; Draw the first line
G1 X0.4 Y200.0 Z0.3 F5000.0 ; Move to side a little
G1 X0.4 Y20 Z0.3 F1500.0 E30 ; Draw the second line
G92 E0 ; Reset Extruder
G1 Z2.0 F3000 ; Move Z Axis up little to prevent scratching of Heat Bed
G1 X5 Y20 Z0.3 F5000.0 ; Move over to prevent blob squish
G92 E0
G92 E0
G1 F1500 E-6.5
;LAYER_COUNT:78
;LAYER:0
M107
G0 F6000 X28.936 Y18.032 Z0.2
;TYPE:SKIRT
G1 F1500 E0
G1 F1200 X29.507 Y17.288 E0.03119
G1 X30.139 Y16.595 E0.06239
G1 X30.828 Y15.959 E0.09358
G1 X31.569 Y15.384 E0.12477
G1 X32.356 Y14.874 E0.15596
G1 X33.184 Y14.433 E0.18716
G1 X34.046 Y14.064 E0.21835
G1 X34.937 Y13.77 E0.24956
G1 X35.849 Y13.552 E0.28074
G1 X36.776 Y13.414 E0.31192
G1 X37.63 Y13.356 E0.34039
G1 X37.95 Y13.347 E0.35103
G1 X38.259 Y13.343 E0.36131
G1 X56.222 Y13.343 E0.95876
G1 X57.099 Y13.355 E0.98794
G1 X58.035 Y13.41 E1.01912
G1 X58.963 Y13.544 E1.05031
G1 X59.877 Y13.757 E1.08152
G1 X60.769 Y14.047 E1.11272
G1 X61.633 Y14.411 E1.1439
G1 X62.462 Y14.848 E1.17507
G1 X63.463 Y15.506 E1.21491
G1 X64.002 Y15.904 E1.2372
G1 X66.083 Y17.398 E1.3224
G1 X68.152 Y18.795 E1.40543
G1 X70.319 Y20.17 E1.49079
G1 X72.431 Y21.428 E1.57256
G1 X74.675 Y22.682 E1.65805
G1 X76.875 Y23.829 E1.74057
G1 X79.17 Y24.945 E1.82545
G1 X81.447 Y25.973 E1.90855
G1 X83.768 Y26.943 E1.99221
G1 X86.135 Y27.856 E2.07659
G1 X88.494 Y28.687 E2.15978
G1 X90.879 Y29.453 E2.2431
G1 X93.305 Y30.159 E2.32713
G1 X95.732 Y30.79 E2.41054
G1 X98.21 Y31.36 E2.49511
G1 X100.68 Y31.857 E2.57891
G1 X103.133 Y32.275 E2.66167
G1 X105.632 Y32.631 E2.74563
G1 X108.125 Y32.914 E2.82908
G1 X110.671 Y33.13 E2.91406
G1 X113.13 Y33.27 E2.99598
G1 X115.688 Y33.342 E3.0811
G1 X118.176 Y33.342 E3.16385
G1 X120.735 Y33.27 E3.24899
G1 X123.218 Y33.129 E3.33171
G1 X125.711 Y32.917 E3.41493
G1 X128.232 Y32.63 E3.49932
G1 X130.714 Y32.277 E3.5827
G1 X133.229 Y31.846 E3.66757
G1 X135.622 Y31.367 E3.74874
G1 X138.151 Y30.784 E3.83506
G1 X140.528 Y30.165 E3.91676
G1 X142.968 Y29.456 E4.00127
G1 X145.397 Y28.674 E4.08614
G1 X147.739 Y27.847 E4.16875
G1 X150.069 Y26.949 E4.2518
G1 X152.414 Y25.969 E4.33633
G1 X154.705 Y24.935 E4.41993
G1 X156.988 Y23.825 E4.50437
G1 X159.196 Y22.673 E4.5872
G1 X161.43 Y21.426 E4.6723
G1 X163.54 Y20.168 E4.754
G1 X165.705 Y18.794 E4.83929
G1 X167.768 Y17.401 E4.92208
G1 X169.863 Y15.898 E5.00784
G1 X170.1 Y15.72 E5.01769
G1 X170.307 Y15.568 E5.02624
G1 X170.532 Y15.407 E5.03544
G1 X171.317 Y14.895 E5.06661
G1 X172.143 Y14.451 E5.0978
G1 X173.004 Y14.079 E5.129
G1 X173.894 Y13.781 E5.16021
G1 X174.805 Y13.561 E5.19138
G1 X175.732 Y13.419 E5.22258
G1 X176.596 Y13.358 E5.25138
G1 X176.922 Y13.348 E5.26223
G1 X177.259 Y13.343 E5.27344
G1 X195.364 Y13.344 E5.87562
G1 X196.062 Y13.353 E5.89883
G1 X196.998 Y13.405 E5.93001
G1 X197.927 Y13.537 E5.96122
G1 X198.841 Y13.747 E5.99241
G1 X199.734 Y14.034 E6.02361
G1 X200.599 Y14.397 E6.05481
G1 X201.43 Y14.831 E6.08599
G1 X202.221 Y15.335 E6.11719
G1 X202.966 Y15.905 E6.14839
G1 X203.66 Y16.536 E6.17959
G1 X204.297 Y17.223 E6.21075
G1 X204.874 Y17.963 E6.24196
G1 X205.386 Y18.749 E6.27316
G1 X205.829 Y19.576 E6.30436
G1 X206.2 Y20.437 E6.33554
G1 X206.496 Y21.327 E6.36674
G1 X206.715 Y22.239 E6.39793
G1 X206.856 Y23.166 E6.42912
G1 X206.915 Y24.032 E6.45799
G1 X206.924 Y24.341 E6.46827
G1 X206.928 Y24.823 E6.4843
G1 X206.918 Y25.503 E6.50692
G1 X206.864 Y26.439 E6.53811
G1 X206.731 Y27.367 E6.56929
G1 X206.519 Y28.281 E6.60049
G1 X206.23 Y29.173 E6.63168
G1 X206.006 Y29.729 E6.65162
G1 X205.527 Y30.83 E6.69155
G1 X204.536 Y33.198 E6.77693
G1 X203.608 Y35.598 E6.86252
G1 X202.779 Y37.95 E6.94546
G1 X202.021 Y40.307 E7.02781
G1 X201.306 Y42.763 E7.11289
G1 X200.675 Y45.184 E7.1961
G1 X200.11 Y47.629 E7.27956
G1 X199.602 Y50.154 E7.36523
G1 X199.19 Y52.564 E7.44655
G1 X198.832 Y55.079 E7.53104
G1 X198.544 Y57.592 E7.61517
G1 X198.333 Y60.079 E7.69819
G1 X198.188 Y62.612 E7.78257
G1 X198.116 Y65.118 E7.86596
G1 X198.106 Y66.492 E7.91166
G1 X198.106 Y142.784 E10.44914
G1 X198.096 Y143.488 E10.47256
G1 X198.043 Y144.425 E10.50377
G1 X197.91 Y145.353 E10.53495
G1 X197.698 Y146.267 E10.56616
G1 X197.501 Y146.905 E10.58837
G1 X197.41 Y147.17 E10.59769
G1 X197.068 Y148.043 E10.62887
G1 X196.652 Y148.884 E10.66008
G1 X196.167 Y149.686 E10.69125
G1 X195.615 Y150.444 E10.72244
G1 X195 Y151.153 E10.75366
G1 X194.328 Y151.806 E10.78482
G1 X193.646 Y152.367 E10.81419
G1 X193.469 Y152.501 E10.82158
G1 X192.697 Y153.035 E10.8528
G1 X191.883 Y153.501 E10.88399
G1 X191.033 Y153.896 E10.91517
G1 X190.326 Y154.16 E10.94027
G1 X189.688 Y154.373 E10.96264
G1 X188.105 Y154.882 E11.01795
G1 X185.703 Y155.728 E11.10265
G1 X183.384 Y156.62 E11.18529
G1 X181.044 Y157.597 E11.26963
G1 X178.773 Y158.622 E11.3525
G1 X176.485 Y159.733 E11.43709
G1 X174.247 Y160.9 E11.52104
G1 X172.052 Y162.123 E11.60461
G1 X169.913 Y163.397 E11.68742
G1 X167.762 Y164.76 E11.77212
G1 X165.672 Y166.171 E11.85599
G1 X163.643 Y167.624 E11.93899
G1 X161.633 Y169.154 E12.02301
G1 X159.659 Y170.744 E12.10732
G1 X157.764 Y172.36 E12.19015
G1 X155.894 Y174.051 E12.27401
G1 X154.079 Y175.788 E12.35756
G1 X152.296 Y177.592 E12.44193
G1 X150.599 Y179.409 E12.52462
G1 X148.91 Y181.326 E12.60959
G1 X147.298 Y183.261 E12.69336
G1 X145.761 Y185.217 E12.7761
G1 X144.26 Y187.241 E12.85991
G1 X142.816 Y189.308 E12.94377
G1 X141.416 Y191.441 E13.02863
G1 X140.112 Y193.553 E13.11119
G1 X138.854 Y195.728 E13.19476
G1 X137.641 Y197.966 E13.27942
G1 X136.524 Y200.175 E13.36175
G1 X135.43 Y202.498 E13.44716
G1 X134.437 Y204.774 E13.52975
G1 X133.487 Y207.128 E13.61418
G1 X132.622 Y209.462 E13.69697
G1 X131.803 Y211.879 E13.78185
G1 X131.081 Y214.226 E13.86352
G1 X130.666 Y215.763 E13.91647
G1 X130.541 Y216.158 E13.93025
G1 X130.271 Y217.139 E13.96409
G1 X129.984 Y218.031 E13.99526
G1 X129.621 Y218.897 E14.02649
G1 X129.187 Y219.728 E14.05767
G1 X128.683 Y220.519 E14.08886
G1 X128.114 Y221.264 E14.12004
G1 X127.478 Y221.964 E14.1515
G1 X127.366 Y222.077 E14.15679
G1 X126.678 Y222.714 E14.18798
G1 X125.938 Y223.29 E14.21917
G1 X125.152 Y223.802 E14.25037
G1 X124.325 Y224.244 E14.28156
G1 X123.463 Y224.615 E14.31277
G1 X122.573 Y224.91 E14.34395
G1 X121.661 Y225.129 E14.37515
G1 X120.734 Y225.269 E14.40633
G1 X119.95 Y225.326 E14.43248
G1 X119.701 Y225.335 E14.44076
G1 X119.318 Y225.342 E14.4535
G1 X117.682 Y225.344 E14.50792
G1 X112.853 Y225.342 E14.66853
G1 X112.15 Y225.332 E14.69191
G1 X111.213 Y225.279 E14.72313
G1 X110.285 Y225.146 E14.75431
G1 X109.371 Y224.934 E14.78552
G1 X108.479 Y224.646 E14.81669
G1 X107.614 Y224.282 E14.84791
G1 X106.784 Y223.846 E14.87909
G1 X105.993 Y223.341 E14.9103
G1 X105.249 Y222.771 E14.94148
G1 X104.395 Y221.976 E14.98028
G1 X104.281 Y221.858 E14.98574
G1 X103.659 Y221.156 E15.01693
G1 X103.098 Y220.404 E15.04814
G1 X102.604 Y219.607 E15.07933
G1 X102.18 Y218.771 E15.1105
G1 X101.828 Y217.901 E15.14172
G1 X101.567 Y217.062 E15.17094
G1 X101.218 Y215.757 E15.21587
G1 X101.133 Y215.421 E15.2274
G1 X100.451 Y213.019 E15.31045
G1 X99.688 Y210.599 E15.39484
G1 X98.866 Y208.224 E15.47844
G1 X97.976 Y205.873 E15.56205
G1 X97.03 Y203.566 E15.64498
G1 X95.992 Y201.23 E15.73
G1 X94.918 Y198.986 E15.81274
G1 X93.75 Y196.715 E15.89768
G1 X92.547 Y194.528 E15.9807
G1 X91.279 Y192.373 E16.06386
G1 X89.93 Y190.218 E16.14842
G1 X88.545 Y188.137 E16.23156
G1 X87.08 Y186.07 E16.31583
G1 X85.568 Y184.057 E16.39956
G1 X84.017 Y182.11 E16.48236
G1 X82.376 Y180.166 E16.56697
G1 X80.692 Y178.282 E16.65102
G1 X78.972 Y176.462 E16.73431
G1 X77.196 Y174.689 E16.81777
G1 X75.362 Y172.956 E16.9017
G1 X73.476 Y171.275 E16.98573
G1 X71.564 Y169.664 E17.06888
G1 X69.579 Y168.086 E17.15322
G1 X67.577 Y166.584 E17.23647
G1 X65.532 Y165.139 E17.31975
G1 X63.431 Y163.741 E17.40369
G1 X61.268 Y162.39 E17.48851
G1 X59.133 Y161.138 E17.57083
G1 X56.894 Y159.908 E17.65579
G1 X54.692 Y158.779 E17.7381
G1 X52.394 Y157.682 E17.82279
G1 X50.094 Y156.663 E17.90646
G1 X47.751 Y155.702 E17.99069
G1 X45.38 Y154.809 E18.07496
G1 X43.91 Y154.292 E18.12679
G1 X43.5 Y154.152 E18.1412
G1 X42.627 Y153.811 E18.17237
G1 X41.785 Y153.397 E18.20358
G1 X40.73 Y152.741 E18.2449
G1 X40.555 Y152.618 E18.25201
G1 X39.811 Y152.047 E18.2832
G1 X39.119 Y151.414 E18.3144
G1 X38.483 Y150.725 E18.34558
G1 X37.908 Y149.984 E18.37678
G1 X37.399 Y149.196 E18.40798
G1 X37.161 Y148.77 E18.42421
G1 X37.055 Y148.57 E18.43174
G1 X36.651 Y147.724 E18.46292
G1 X36.321 Y146.846 E18.49412
G1 X36.067 Y145.943 E18.52532
G1 X35.891 Y145.022 E18.5565
G1 X35.808 Y144.286 E18.58114
G1 X35.791 Y144.071 E18.58831
G1 X35.758 Y143.32 E18.61332
G1 X35.752 Y142.731 E18.63291
G1 X35.751 Y66.472 E21.16929
G1 X35.714 Y63.864 E21.25604
G1 X35.607 Y61.342 E21.34
G1 X35.43 Y58.847 E21.42319
G1 X35.184 Y56.367 E21.50608
G1 X34.857 Y53.819 E21.59152
G1 X34.474 Y51.375 E21.6738
G1 X34.01 Y48.878 E21.75828
G1 X33.477 Y46.401 E21.84255
G1 X32.891 Y44.011 E21.92439
G1 X32.216 Y41.56 E22.00895
G1 X31.465 Y39.107 E22.09427
G1 X30.667 Y36.741 E22.17732
G1 X29.798 Y34.387 E22.26078
G1 X28.867 Y32.07 E22.34383
G1 X27.894 Y29.832 E22.425
G1 X27.791 Y29.586 E22.43387
G1 X27.466 Y28.707 E22.46504
G1 X27.218 Y27.802 E22.49625
G1 X27.047 Y26.88 E22.52744
G1 X26.942 Y25.646 E22.56863
G1 X26.933 Y25.325 E22.57931
G1 X26.93 Y24.852 E22.59504
G1 X26.94 Y24.187 E22.61716
G1 X26.994 Y23.25 E22.64838
G1 X27.128 Y22.322 E22.67957
G1 X27.34 Y21.408 E22.71077
G1 X27.629 Y20.516 E22.74196
G1 X27.994 Y19.652 E22.77316
G1 X28.43 Y18.822 E22.80434
G1 X28.936 Y18.032 E22.83554
G0 F6000 X29.332 Y18.165
G1 F1200 X29.901 Y17.442 E22.86614
G1 X30.531 Y16.77 E22.89678
G1 X31.217 Y16.156 E22.9274
G1 X31.953 Y15.604 E22.958
G1 X32.735 Y15.117 E22.98864
G1 X33.556 Y14.701 E23.01925
G1 X34.41 Y14.357 E23.04987
G1 X35.29 Y14.088 E23.08048
G1 X36.191 Y13.897 E23.11111
G1 X37.105 Y13.785 E23.14174
G1 X37.641 Y13.756 E23.15959
G1 X37.961 Y13.747 E23.17024
G1 X38.259 Y13.743 E23.18015
G1 X56.222 Y13.743 E23.77761
G1 X57.092 Y13.755 E23.80655
G1 X58.011 Y13.81 E23.83717
G1 X58.922 Y13.943 E23.86779
G1 X59.818 Y14.156 E23.89842
G1 X60.692 Y14.445 E23.92904
G1 X61.538 Y14.809 E23.95967
G1 X62.349 Y15.245 E23.99029
G1 X63.225 Y15.828 E24.02529
G1 X63.736 Y16.206 E24.04643
G1 X65.872 Y17.738 E24.13386
G1 X67.93 Y19.128 E24.21646
G1 X70.065 Y20.483 E24.30056
G1 X72.296 Y21.812 E24.38694
G1 X74.433 Y23.005 E24.46834
G1 X76.722 Y24.199 E24.55421
G1 X78.981 Y25.298 E24.63776
G1 X81.307 Y26.348 E24.72264
G1 X83.606 Y27.309 E24.80552
G1 X85.995 Y28.231 E24.89069
G1 X88.344 Y29.058 E24.97352
G1 X90.783 Y29.841 E25.05872
G1 X93.199 Y30.544 E25.1424
G1 X95.655 Y31.183 E25.22681
G1 X98.113 Y31.749 E25.3107
G1 X100.599 Y32.248 E25.39504
G1 X103.087 Y32.673 E25.47899
G1 X105.597 Y33.031 E25.56332
G1 X108.082 Y33.313 E25.6465
G1 X110.613 Y33.527 E25.73098
G1 X113.132 Y33.67 E25.8149
G1 X115.677 Y33.742 E25.89958
G1 X118.187 Y33.742 E25.98306
G1 X120.733 Y33.67 E26.06777
G1 X123.237 Y33.528 E26.15119
G1 X125.792 Y33.31 E26.23648
G1 X128.267 Y33.03 E26.31932
G1 X130.767 Y32.673 E26.40332
G1 X133.297 Y32.24 E26.48869
G1 X135.726 Y31.754 E26.57108
G1 X138.228 Y31.177 E26.65648
G1 X140.667 Y30.542 E26.74031
G1 X143.074 Y29.842 E26.82368
G1 X145.505 Y29.06 E26.90862
G1 X147.88 Y28.221 E26.99239
G1 X150.231 Y27.315 E27.07619
G1 X152.585 Y26.332 E27.16104
G1 X154.866 Y25.302 E27.24428
G1 X157.146 Y24.193 E27.32861
G1 X159.424 Y23.005 E27.41406
G1 X161.598 Y21.791 E27.49688
G1 X163.78 Y20.489 E27.58139
G1 X165.926 Y19.128 E27.66591
G1 X167.996 Y17.73 E27.74899
G1 X170.082 Y16.234 E27.83437
G1 X170.34 Y16.04 E27.8451
G1 X170.765 Y15.733 E27.86254
G1 X171.536 Y15.23 E27.89316
G1 X172.348 Y14.796 E27.92378
G1 X173.194 Y14.434 E27.95439
G1 X174.069 Y14.147 E27.98502
G1 X174.966 Y13.937 E28.01566
G1 X175.877 Y13.806 E28.04627
G1 X176.608 Y13.758 E28.07063
G1 X176.934 Y13.748 E28.08148
G1 X177.259 Y13.743 E28.09229
G1 X195.359 Y13.744 E28.6943
G1 X196.057 Y13.753 E28.71752
G1 X196.976 Y13.805 E28.74813
G1 X197.887 Y13.936 E28.77875
G1 X198.783 Y14.146 E28.80935
G1 X199.658 Y14.433 E28.83998
G1 X200.505 Y14.795 E28.87062
G1 X201.317 Y15.229 E28.90124
G1 X202.088 Y15.731 E28.93184
G1 X202.813 Y16.299 E28.96247
G1 X203.486 Y16.928 E28.99311
G1 X204.101 Y17.612 E29.02371
G1 X204.655 Y18.347 E29.05432
G1 X205.143 Y19.128 E29.08495
G1 X205.562 Y19.948 E29.11558
G1 X205.908 Y20.801 E29.14619
G1 X206.178 Y21.681 E29.17681
G1 X206.371 Y22.582 E29.20746
G1 X206.485 Y23.495 E29.23806
G1 X206.516 Y24.043 E29.25631
G1 X206.525 Y24.352 E29.2666
G1 X206.528 Y24.817 E29.28206
G1 X206.518 Y25.497 E29.30468
G1 X206.464 Y26.416 E29.3353
G1 X206.331 Y27.327 E29.36592
G1 X206.12 Y28.223 E29.39654
G1 X205.831 Y29.097 E29.42716
G1 X205.639 Y29.569 E29.4441
G1 X205.174 Y30.639 E29.48291
G1 X204.147 Y33.091 E29.57133
G1 X203.236 Y35.446 E29.65531
G1 X202.407 Y37.8 E29.73832
G1 X201.639 Y40.188 E29.82175
G1 X200.92 Y42.655 E29.90721
G1 X200.284 Y45.099 E29.99121
G1 X199.722 Y47.532 E30.07426
G1 X199.209 Y50.078 E30.16064
G1 X198.793 Y52.511 E30.24274
G1 X198.437 Y55.009 E30.32666
G1 X198.147 Y57.547 E30.41163
G1 X197.933 Y60.062 E30.49558
G1 X197.79 Y62.577 E30.57936
G1 X197.716 Y65.152 E30.66504
G1 X197.706 Y66.489 E30.70951
G1 X197.706 Y142.779 E33.24693
G1 X197.696 Y143.483 E33.27035
G1 X197.643 Y144.402 E33.30096
G1 X197.51 Y145.313 E33.33159
G1 X197.299 Y146.209 E33.3622
G1 X197.122 Y146.775 E33.38193
G1 X197.031 Y147.04 E33.39124
G1 X196.695 Y147.897 E33.42186
G1 X196.285 Y148.721 E33.45247
G1 X195.806 Y149.507 E33.48309
G1 X195.26 Y150.248 E33.5137
G1 X194.651 Y150.939 E33.54434
G1 X193.985 Y151.575 E33.57497
G1 X193.404 Y152.048 E33.59988
G1 X193.227 Y152.182 E33.60727
G1 X192.47 Y152.706 E33.63789
G1 X191.67 Y153.161 E33.6685
G1 X190.833 Y153.546 E33.69914
G1 X190.199 Y153.781 E33.72163
G1 X189.566 Y153.992 E33.74382
G1 X187.987 Y154.5 E33.79899
G1 X185.575 Y155.35 E33.88405
G1 X183.224 Y156.253 E33.96782
G1 X180.891 Y157.228 E34.05191
G1 X178.583 Y158.269 E34.13613
G1 X176.304 Y159.376 E34.2204
G1 X174.046 Y160.553 E34.30509
G1 X171.884 Y161.758 E34.38741
G1 X169.689 Y163.065 E34.47238
G1 X167.53 Y164.434 E34.55741
G1 X165.461 Y165.83 E34.64042
G1 X163.414 Y167.297 E34.72418
G1 X161.381 Y168.843 E34.80913
G1 X159.416 Y170.427 E34.89308
G1 X157.502 Y172.059 E34.97674
G1 X155.613 Y173.767 E35.06144
G1 X153.783 Y175.518 E35.14568
G1 X152.02 Y177.303 E35.22913
G1 X150.29 Y179.154 E35.31339
G1 X148.619 Y181.051 E35.39748
G1 X146.992 Y183.004 E35.48202
G1 X145.441 Y184.977 E35.56549
G1 X143.927 Y187.02 E35.65007
G1 X142.482 Y189.089 E35.734
G1 X141.09 Y191.208 E35.81833
G1 X139.769 Y193.348 E35.90197
G1 X138.498 Y195.544 E35.98636
G1 X137.29 Y197.774 E36.07072
G1 X136.156 Y200.017 E36.15431
G1 X135.079 Y202.304 E36.23839
G1 X134.058 Y204.643 E36.32328
G1 X133.117 Y206.976 E36.40695
G1 X132.244 Y209.332 E36.49051
G1 X131.428 Y211.738 E36.57501
G1 X130.693 Y214.129 E36.65821
G1 X130.28 Y215.658 E36.71089
G1 X130.151 Y216.066 E36.72512
G1 X129.885 Y217.032 E36.75845
G1 X129.602 Y217.909 E36.7891
G1 X129.245 Y218.757 E36.8197
G1 X128.815 Y219.571 E36.85032
G1 X128.316 Y220.345 E36.88095
G1 X127.752 Y221.073 E36.91158
G1 X127.194 Y221.682 E36.93905
G1 X127.082 Y221.795 E36.94434
G1 X126.406 Y222.42 E36.97496
G1 X125.678 Y222.984 E37.00559
G1 X124.904 Y223.483 E37.03622
G1 X124.09 Y223.913 E37.06684
G1 X123.242 Y224.27 E37.09744
G1 X122.366 Y224.553 E37.12806
G1 X121.468 Y224.759 E37.1587
G1 X120.556 Y224.885 E37.18933
G1 X119.936 Y224.926 E37.20999
G1 X119.687 Y224.935 E37.21828
G1 X119.317 Y224.942 E37.23059
G1 X117.682 Y224.944 E37.28497
G1 X112.858 Y224.942 E37.44541
G1 X112.155 Y224.932 E37.4688
G1 X111.236 Y224.879 E37.49942
