;FLAVOR:Marlin
;TIME:7919
;Filament used: 4.40372m
;Layer height: 0.2
;MINX:26.93
;MINY:13.343
;MINZ:0.2
;MAXX:206.928
;MAXY:225.344
;MAXZ:15.6
;Generated with Cura_SteamEngine 4.13.1
M140 S60
M105
M190 S60
M104 S200
M105
M109 S200
M82 ;absolute extrusion mode
; Ender 3 Custom Start G-code
G92 E0 ; Reset Extruder
G28 ; Home all axes
G29; Home?
G1 Z2.0 F3000 ; Move Z Axis up little to prevent scratching of Heat Bed
G1 X0.1 Y20 Z0.3 F5000.0 ; Move to start position
G1 X0.1 Y200.0 Z0.3 F1500.0 E15 ; Draw the first line
G1 X0.4 Y200.0 Z0.3 F5000.0 ; Move to side a little
G1 X0.4 Y20 Z0.3 F1500.0 E30 ; Draw the second line
G92 E0 ; Reset Extruder
G1 Z2.0 F3000 ; Move Z Axis up little to prevent scratching of Heat Bed
G1 X5 Y20 Z0.3 F5000.0 ; Move over to prevent blob squish
G92 E0
G92 E0
G1 F1500 E-6.5
;LAYER_COUNT:78
;LAYER:0
M107
G0 F6000 X28.936 Y18.032 Z0.2
;TYPE:SKIRT
G1 F1500 E0
G1 F1200 X29.507 Y17.288 E0.03119
G1 X30.139 Y16.595 E0.06239
G1 X30.828 Y15.959 E0.09358
G1 X31.569 Y15.384 E0.12477
G1 X32.356 Y14.874 E0.15596
G1 X33.184 Y14.433 E0.18716
G1 X34.046 Y14.064 E0.21835
G1 X34.937 Y13.77 E0.24956
G1 X35.849 Y13.552 E0.28074
G1 X36.776 Y13.414 E0.31192
G1 X37.63 Y13.356 E0.34039
G1 X37.95 Y13.347 E0.35103
G1 X38.259 Y13.343 E0.36131
G1 X56.222 Y13.343 E0.95876
G1 X57.081 Y13.354 E0.98734
G1 X58.018 Y13.407 E1.01855
G1 X58.946 Y13.54 E1.04973
G1 X59.86 Y13.752 E1.08094
G1 X60.752 Y14.04 E1.11211
G1 X61.869 Y14.527 E1.15264
G1 X62.229 Y14.708 E1.16605
G1 X64.623 Y15.872 E1.25458
G1 X66.895 Y16.897 E1.33748
G1 X69.238 Y17.878 E1.42197
G1 X71.571 Y18.777 E1.50513
G1 X73.965 Y19.62 E1.58954
G1 X76.341 Y20.384 E1.67255
G1 X78.764 Y21.089 E1.75649
G1 X81.195 Y21.721 E1.84003
G1 X83.64 Y22.283 E1.92347
G1 X86.146 Y22.788 E2.0085
G1 X88.6 Y23.206 E2.09129
G1 X91.085 Y23.56 E2.17478
G1 X93.585 Y23.844 E2.25846
G1 X96.127 Y24.059 E2.34331
G1 X98.586 Y24.199 E2.42523
G1 X101.229 Y24.273 E2.51317
G1 X102.259 Y24.288 E2.54743
G1 X103.195 Y24.341 E2.57861
G1 X103.755 Y24.412 E2.59739
G1 X104.766 Y24.612 E2.63167
G1 X104.895 Y24.644 E2.63609
G1 X107.386 Y25.217 E2.7211
G1 X109.888 Y25.721 E2.80599
G1 X112.353 Y26.141 E2.88916
G1 X114.836 Y26.494 E2.97257
G1 X117.329 Y26.777 E3.05602
G1 X119.875 Y26.993 E3.14101
G1 X122.334 Y27.133 E3.22293
G1 X124.892 Y27.205 E3.30804
G1 X127.38 Y27.205 E3.39079
G1 X129.939 Y27.133 E3.47594
G1 X132.422 Y26.992 E3.55866
G1 X134.912 Y26.78 E3.64177
G1 X137.44 Y26.493 E3.7264
G1 X139.918 Y26.14 E3.80965
G1 X142.433 Y25.709 E3.89451
G1 X144.826 Y25.23 E3.97568
G1 X147.355 Y24.647 E4.06201
G1 X149.732 Y24.028 E4.1437
G1 X152.172 Y23.319 E4.22821
G1 X154.601 Y22.537 E4.31309
G1 X156.943 Y21.71 E4.39569
G1 X159.273 Y20.812 E4.47875
G1 X161.618 Y19.832 E4.56328
G1 X163.909 Y18.798 E4.64688
G1 X166.192 Y17.688 E4.73131
G1 X168.4 Y16.536 E4.81414
G1 X170.65 Y15.28 E4.89985
G1 X171.187 Y14.965 E4.92056
G1 X171.567 Y14.75 E4.93508
G1 X172.405 Y14.328 E4.96629
G1 X173.275 Y13.979 E4.99746
G1 X174.172 Y13.705 E5.02866
G1 X175.089 Y13.508 E5.05985
G1 X176.02 Y13.391 E5.09106
G1 X176.596 Y13.358 E5.11025
G1 X176.923 Y13.348 E5.12113
G1 X177.259 Y13.343 E5.13231
G1 X195.364 Y13.344 E5.73448
G1 X196.062 Y13.353 E5.7577
G1 X196.998 Y13.405 E5.78888
G1 X197.927 Y13.537 E5.82009
G1 X198.841 Y13.747 E5.85128
G1 X199.734 Y14.034 E5.88248
G1 X200.599 Y14.397 E5.91368
G1 X201.43 Y14.831 E5.94486
G1 X202.221 Y15.335 E5.97606
G1 X202.966 Y15.905 E6.00726
G1 X203.66 Y16.536 E6.03845
G1 X204.297 Y17.223 E6.06961
G1 X204.874 Y17.963 E6.10082
G1 X205.386 Y18.749 E6.13202
G1 X205.829 Y19.576 E6.16323
G1 X206.2 Y20.437 E6.19441
G1 X206.496 Y21.327 E6.22561
G1 X206.715 Y22.239 E6.2568
G1 X206.856 Y23.166 E6.28799
G1 X206.915 Y24.032 E6.31686
G1 X206.924 Y24.341 E6.32714
G1 X206.928 Y24.823 E6.34317
G1 X206.918 Y25.503 E6.36579
G1 X206.864 Y26.439 E6.39698
G1 X206.731 Y27.367 E6.42816
G1 X206.519 Y28.281 E6.45936
G1 X206.23 Y29.173 E6.49055
G1 X206.006 Y29.729 E6.51049
G1 X205.527 Y30.83 E6.55042
G1 X204.536 Y33.198 E6.6358
G1 X203.608 Y35.598 E6.72138
G1 X202.779 Y37.95 E6.80433
G1 X202.021 Y40.307 E6.88668
G1 X201.306 Y42.763 E6.97175
G1 X200.675 Y45.184 E7.05497
G1 X200.11 Y47.629 E7.13843
G1 X199.602 Y50.154 E7.2241
G1 X199.19 Y52.564 E7.30542
G1 X198.832 Y55.079 E7.38991
G1 X198.544 Y57.592 E7.47404
G1 X198.333 Y60.079 E7.55705
G1 X198.188 Y62.612 E7.64144
G1 X198.116 Y65.118 E7.72482
G1 X198.106 Y66.492 E7.77052
G1 X198.106 Y142.784 E10.30801
G1 X198.096 Y143.488 E10.33142
G1 X198.043 Y144.425 E10.36264
G1 X197.91 Y145.353 E10.39382
G1 X197.698 Y146.267 E10.42503
G1 X197.501 Y146.905 E10.44723
G1 X197.41 Y147.17 E10.45655
G1 X197.068 Y148.043 E10.48774
G1 X196.652 Y148.884 E10.51895
G1 X196.167 Y149.686 E10.55012
G1 X195.615 Y150.444 E10.58131
G1 X195 Y151.153 E10.61252
G1 X194.328 Y151.806 E10.64369
G1 X193.646 Y152.367 E10.67306
G1 X193.469 Y152.501 E10.68044
G1 X192.697 Y153.035 E10.71166
G1 X191.883 Y153.501 E10.74286
G1 X191.033 Y153.896 E10.77404
G1 X190.326 Y154.16 E10.79914
G1 X189.688 Y154.373 E10.82151
G1 X188.105 Y154.882 E10.87681
G1 X185.703 Y155.728 E10.96151
G1 X183.384 Y156.62 E11.04415
G1 X181.044 Y157.597 E11.12849
G1 X178.773 Y158.622 E11.21136
G1 X176.485 Y159.733 E11.29596
G1 X174.247 Y160.9 E11.37991
G1 X172.052 Y162.123 E11.46348
G1 X169.913 Y163.397 E11.54629
G1 X167.762 Y164.76 E11.63099
G1 X165.672 Y166.171 E11.71486
G1 X163.643 Y167.624 E11.79786
G1 X161.633 Y169.154 E11.88188
G1 X159.659 Y170.744 E11.96618
G1 X157.764 Y172.36 E12.04902
G1 X155.894 Y174.051 E12.13287
G1 X154.079 Y175.788 E12.21643
G1 X152.296 Y177.592 E12.30079
G1 X150.599 Y179.409 E12.38348
G1 X148.91 Y181.326 E12.46846
G1 X147.298 Y183.261 E12.55223
G1 X145.761 Y185.217 E12.63497
G1 X144.26 Y187.241 E12.71878
G1 X142.816 Y189.308 E12.80264
G1 X141.416 Y191.441 E12.8875
G1 X140.112 Y193.553 E12.97006
G1 X138.854 Y195.728 E13.05362
G1 X137.641 Y197.966 E13.13829
G1 X136.524 Y200.175 E13.22062
G1 X135.43 Y202.498 E13.30602
G1 X134.437 Y204.774 E13.38862
G1 X133.487 Y207.128 E13.47305
G1 X132.622 Y209.462 E13.55583
G1 X131.803 Y211.879 E13.64071
G1 X131.081 Y214.226 E13.72239
G1 X130.666 Y215.763 E13.77534
G1 X130.541 Y216.158 E13.78912
G1 X130.271 Y217.139 E13.82296
G1 X129.984 Y218.031 E13.85412
G1 X129.621 Y218.897 E13.88536
G1 X129.187 Y219.728 E13.91654
G1 X128.683 Y220.519 E13.94773
G1 X128.114 Y221.264 E13.97891
G1 X127.478 Y221.964 E14.01037
G1 X127.366 Y222.077 E14.01566
G1 X126.678 Y222.714 E14.04685
G1 X125.938 Y223.29 E14.07804
G1 X125.152 Y223.802 E14.10923
G1 X124.325 Y224.244 E14.14042
G1 X123.463 Y224.615 E14.17164
G1 X122.573 Y224.91 E14.20282
G1 X121.661 Y225.129 E14.23402
G1 X120.734 Y225.269 E14.2652
G1 X119.95 Y225.326 E14.29134
G1 X119.701 Y225.335 E14.29963
G1 X119.318 Y225.342 E14.31237
G1 X117.682 Y225.344 E14.36678
G1 X112.853 Y225.342 E14.5274
G1 X112.15 Y225.332 E14.55078
G1 X111.213 Y225.279 E14.582
G1 X110.285 Y225.146 E14.61318
G1 X109.371 Y224.934 E14.64438
G1 X108.479 Y224.646 E14.67556
G1 X107.614 Y224.282 E14.70677
G1 X106.784 Y223.846 E14.73796
G1 X105.993 Y223.341 E14.76917
G1 X105.249 Y222.771 E14.80034
G1 X104.395 Y221.976 E14.83915
G1 X104.281 Y221.858 E14.84461
G1 X103.659 Y221.156 E14.8758
G1 X103.098 Y220.404 E14.90701
G1 X102.604 Y219.607 E14.93819
G1 X102.18 Y218.771 E14.96937
G1 X101.828 Y217.901 E15.00059
G1 X101.567 Y217.062 E15.02981
G1 X101.218 Y215.757 E15.07474
G1 X101.133 Y215.421 E15.08627
G1 X100.451 Y213.019 E15.16932
G1 X99.688 Y210.599 E15.25371
G1 X98.866 Y208.224 E15.3373
G1 X97.976 Y205.873 E15.42091
G1 X97.03 Y203.566 E15.50384
G1 X95.992 Y201.23 E15.58887
G1 X94.918 Y198.986 E15.67161
G1 X93.75 Y196.715 E15.75655
G1 X92.547 Y194.528 E15.83957
G1 X91.279 Y192.373 E15.92273
G1 X89.93 Y190.218 E16.00729
G1 X88.545 Y188.137 E16.09043
G1 X87.08 Y186.07 E16.1747
G1 X85.568 Y184.057 E16.25843
G1 X84.017 Y182.11 E16.34123
G1 X82.376 Y180.166 E16.42584
G1 X80.692 Y178.282 E16.50989
G1 X78.972 Y176.462 E16.59317
G1 X77.196 Y174.689 E16.67664
G1 X75.362 Y172.956 E16.76056
G1 X73.476 Y171.275 E16.84459
G1 X71.564 Y169.664 E16.92775
G1 X69.579 Y168.086 E17.01209
G1 X67.577 Y166.584 E17.09534
G1 X65.532 Y165.139 E17.17862
G1 X63.431 Y163.741 E17.26255
G1 X61.268 Y162.39 E17.34738
G1 X59.133 Y161.138 E17.4297
G1 X56.894 Y159.908 E17.51466
G1 X54.692 Y158.779 E17.59697
G1 X52.394 Y157.682 E17.68166
G1 X50.094 Y156.663 E17.76533
G1 X47.751 Y155.702 E17.84956
G1 X45.38 Y154.809 E17.93383
G1 X43.91 Y154.292 E17.98566
G1 X43.5 Y154.152 E18.00007
G1 X42.627 Y153.811 E18.03124
G1 X41.785 Y153.397 E18.06244
G1 X40.73 Y152.741 E18.10376
G1 X40.555 Y152.618 E18.11088
G1 X39.811 Y152.047 E18.14207
G1 X39.119 Y151.414 E18.17327
G1 X38.483 Y150.725 E18.20445
G1 X37.908 Y149.984 E18.23565
G1 X37.399 Y149.196 E18.26685
G1 X37.161 Y148.77 E18.28308
G1 X37.055 Y148.57 E18.29061
G1 X36.651 Y147.724 E18.32179
G1 X36.321 Y146.846 E18.35299
G1 X36.067 Y145.943 E18.38419
G1 X35.891 Y145.022 E18.41537
G1 X35.808 Y144.286 E18.44001
G1 X35.791 Y144.071 E18.44718
G1 X35.758 Y143.32 E18.47218
G1 X35.752 Y142.731 E18.49177
G1 X35.751 Y66.472 E21.02816
G1 X35.714 Y63.864 E21.11491
G1 X35.607 Y61.342 E21.19887
G1 X35.43 Y58.847 E21.28206
G1 X35.184 Y56.367 E21.36495
G1 X34.857 Y53.819 E21.45039
G1 X34.474 Y51.375 E21.53267
G1 X34.01 Y48.878 E21.61714
G1 X33.477 Y46.401 E21.70141
G1 X32.891 Y44.011 E21.78326
G1 X32.216 Y41.56 E21.86782
G1 X31.474 Y39.134 E21.9522
G1 X30.667 Y36.741 E22.03619
G1 X29.798 Y34.387 E22.11965
G1 X28.867 Y32.07 E22.2027
G1 X27.894 Y29.832 E22.28387
G1 X27.791 Y29.586 E22.29274
G1 X27.466 Y28.707 E22.32391
G1 X27.218 Y27.802 E22.35512
G1 X27.047 Y26.88 E22.38631
G1 X26.942 Y25.646 E22.4275
G1 X26.933 Y25.325 E22.43818
G1 X26.93 Y24.852 E22.45391
G1 X26.94 Y24.187 E22.47603
G1 X26.994 Y23.25 E22.50725
G1 X27.128 Y22.322 E22.53844
G1 X27.34 Y21.408 E22.56964
G1 X27.629 Y20.516 E22.60083
G1 X27.994 Y19.652 E22.63202
G1 X28.43 Y18.822 E22.66321
G1 X28.936 Y18.032 E22.69441
G0 F6000 X29.332 Y18.165
G1 F1200 X29.901 Y17.442 E22.72501
G1 X30.531 Y16.77 E22.75565
G1 X31.217 Y16.156 E22.78627
G1 X31.953 Y15.604 E22.81687
G1 X32.735 Y15.117 E22.84751
G1 X33.556 Y14.701 E22.87812
G1 X34.41 Y14.357 E22.90874
G1 X35.29 Y14.088 E22.93935
G1 X36.191 Y13.897 E22.96998
G1 X37.105 Y13.785 E23.00061
G1 X37.641 Y13.756 E23.01846
G1 X37.961 Y13.747 E23.02911
G1 X38.259 Y13.743 E23.03902
G1 X56.222 Y13.743 E23.63647
G1 X57.076 Y13.754 E23.66488
G1 X57.995 Y13.807 E23.6955
G1 X58.906 Y13.94 E23.72612
G1 X59.802 Y14.151 E23.75674
G1 X60.676 Y14.439 E23.78734
G1 X61.69 Y14.884 E23.82417
G1 X62.112 Y15.097 E23.83989
G1 X64.42 Y16.219 E23.92525
G1 X66.755 Y17.273 E24.01046
G1 X69.088 Y18.248 E24.09456
G1 X71.461 Y19.163 E24.17915
G1 X73.814 Y19.992 E24.26212
G1 X76.222 Y20.766 E24.34625
G1 X78.648 Y21.471 E24.43028
G1 X81.118 Y22.114 E24.51517
G1 X83.577 Y22.679 E24.59909
G1 X86.066 Y23.18 E24.68353
G1 X88.517 Y23.598 E24.76623
G1 X91.05 Y23.959 E24.85133
G1 X93.542 Y24.242 E24.93474
G1 X96.069 Y24.456 E25.01909
G1 X98.588 Y24.599 E25.10301
G1 X101.213 Y24.673 E25.19035
G1 X102.253 Y24.688 E25.22495
G1 X103.172 Y24.741 E25.25556
G1 X103.695 Y24.807 E25.2731
G1 X104.67 Y25.001 E25.30616
G1 X107.289 Y25.605 E25.39556
G1 X109.84 Y26.119 E25.48211
G1 X112.271 Y26.533 E25.56413
G1 X114.801 Y26.894 E25.64913
G1 X117.286 Y27.176 E25.73231
G1 X119.817 Y27.39 E25.81679
G1 X122.336 Y27.533 E25.90071
G1 X124.881 Y27.605 E25.98539
G1 X127.391 Y27.605 E26.06887
G1 X129.937 Y27.533 E26.15359
G1 X132.444 Y27.391 E26.2371
G1 X134.99 Y27.174 E26.32209
G1 X137.475 Y26.892 E26.40527
G1 X139.971 Y26.536 E26.48913
G1 X142.501 Y26.103 E26.5745
G1 X144.93 Y25.617 E26.65689
G1 X147.432 Y25.04 E26.74229
G1 X149.871 Y24.405 E26.82612
G1 X152.278 Y23.705 E26.90949
G1 X154.709 Y22.923 E26.99443
G1 X157.084 Y22.084 E27.07821
G1 X159.435 Y21.178 E27.16201
G1 X161.789 Y20.195 E27.24685
G1 X164.07 Y19.165 E27.33009
G1 X166.345 Y18.058 E27.41424
G1 X168.628 Y16.868 E27.49987
G1 X170.814 Y15.647 E27.58315
G1 X171.389 Y15.31 E27.60532
G1 X171.762 Y15.099 E27.61957
G1 X172.585 Y14.685 E27.65021
G1 X173.44 Y14.345 E27.68082
G1 X174.322 Y14.079 E27.71146
G1 X175.223 Y13.892 E27.74206
G1 X176.137 Y13.783 E27.77268
G1 X176.608 Y13.758 E27.78837
G1 X176.935 Y13.748 E27.79925
G1 X177.259 Y13.743 E27.81003
G1 X195.359 Y13.744 E28.41203
G1 X196.057 Y13.753 E28.43525
G1 X196.976 Y13.805 E28.46587
G1 X197.887 Y13.936 E28.49648
G1 X198.783 Y14.146 E28.52709
G1 X199.658 Y14.433 E28.55771
G1 X200.505 Y14.795 E28.58835
G1 X201.317 Y15.229 E28.61897
G1 X202.088 Y15.731 E28.64957
G1 X202.813 Y16.299 E28.68021
G1 X203.486 Y16.928 E28.71085
G1 X204.101 Y17.612 E28.74144
G1 X204.655 Y18.347 E28.77205
G1 X205.143 Y19.128 E28.80268
G1 X205.562 Y19.948 E28.83331
G1 X205.908 Y20.801 E28.86393
G1 X206.178 Y21.681 E28.89454
G1 X206.371 Y22.582 E28.92519
G1 X206.485 Y23.495 E28.95579
G1 X206.516 Y24.043 E28.97405
G1 X206.525 Y24.352 E28.98433
G1 X206.528 Y24.817 E28.99979
G1 X206.518 Y25.497 E29.02241
G1 X206.464 Y26.416 E29.05303
G1 X206.331 Y27.327 E29.08365
G1 X206.12 Y28.223 E29.11427
G1 X205.831 Y29.097 E29.14489
G1 X205.639 Y29.569 E29.16183
G1 X205.174 Y30.639 E29.20064
G1 X204.147 Y33.091 E29.28906
G1 X203.236 Y35.446 E29.37304
G1 X202.407 Y37.8 E29.45605
G1 X201.639 Y40.188 E29.53948
G1 X200.92 Y42.655 E29.62495
G1 X200.284 Y45.099 E29.70894
G1 X199.722 Y47.532 E29.79199
G1 X199.209 Y50.078 E29.87838
G1 X198.793 Y52.511 E29.96047
G1 X198.437 Y55.009 E30.0444
G1 X198.147 Y57.547 E30.12936
G1 X197.933 Y60.062 E30.21331
G1 X197.79 Y62.577 E30.2971
G1 X197.716 Y65.152 E30.38278
G1 X197.706 Y66.489 E30.42725
G1 X197.706 Y142.779 E32.96466
G1 X197.696 Y143.483 E32.98808
G1 X197.643 Y144.402 E33.0187
G1 X197.51 Y145.313 E33.04932
G1 X197.299 Y146.209 E33.07993
G1 X197.122 Y146.775 E33.09966
G1 X197.031 Y147.04 E33.10898
G1 X196.695 Y147.897 E33.13959
G1 X196.285 Y148.721 E33.1702
G1 X195.806 Y149.507 E33.20082
G1 X195.26 Y150.248 E33.23143
G1 X194.651 Y150.939 E33.26207
G1 X193.985 Y151.575 E33.2927
G1 X193.404 Y152.048 E33.31762
G1 X193.227 Y152.182 E33.325
G1 X192.47 Y152.706 E33.35562
G1 X191.67 Y153.161 E33.38623
G1 X190.833 Y153.546 E33.41687
G1 X190.199 Y153.781 E33.43936
G1 X189.566 Y153.992 E33.46156
G1 X187.987 Y154.5 E33.51672
G1 X185.575 Y155.35 E33.60178
G1 X183.224 Y156.253 E33.68555
G1 X180.891 Y157.228 E33.76965
G1 X178.583 Y158.269 E33.85386
G1 X176.304 Y159.376 E33.93813
G1 X174.046 Y160.553 E34.02282
G1 X171.884 Y161.758 E34.10514
G1 X169.689 Y163.065 E34.19011
G1 X167.53 Y164.434 E34.27514
G1 X165.461 Y165.83 E34.35815
G1 X163.414 Y167.297 E34.44191
G1 X161.381 Y168.843 E34.52686
G1 X159.416 Y170.427 E34.61081
G1 X157.502 Y172.059 E34.69447
G1 X155.613 Y173.767 E34.77917
G1 X153.783 Y175.518 E34.86341
G1 X152.02 Y177.303 E34.94686
G1 X150.29 Y179.154 E35.03113
G1 X148.619 Y181.051 E35.11521
G1 X146.992 Y183.004 E35.19975
G1 X145.441 Y184.977 E35.28322
G1 X143.927 Y187.02 E35.3678
G1 X142.482 Y189.089 E35.45174
G1 X141.09 Y191.208 E35.53606
G1 X139.769 Y193.348 E35.61971
G1 X138.498 Y195.544 E35.7041
G1 X137.29 Y197.774 E35.78845
G1 X136.156 Y200.017 E35.87204
G1 X135.079 Y202.304 E35.95612
G1 X134.058 Y204.643 E36.04101
G1 X133.117 Y206.976 E36.12468
G1 X132.244 Y209.332 E36.20824
G1 X131.428 Y211.738 E36.29275
G1 X130.693 Y214.129 E36.37594
G1 X130.28 Y215.658 E36.42862
G1 X130.151 Y216.066 E36.44285
G1 X129.885 Y217.032 E36.47618
G1 X129.602 Y217.909 E36.50683
G1 X129.245 Y218.757 E36.53743
G1 X128.815 Y219.571 E36.56805
G1 X128.316 Y220.345 E36.59868
G1 X127.752 Y221.073 E36.62931
G1 X127.194 Y221.682 E36.65678
G1 X127.082 Y221.795 E36.66207
G1 X126.406 Y222.42 E36.69269
G1 X125.678 Y222.984 E36.72332
G1 X124.904 Y223.483 E36.75395
G1 X124.09 Y223.913 E36.78457
G1 X123.242 Y224.27 E36.81517
G1 X122.366 Y224.553 E36.84579
G1 X121.468 Y224.759 E36.87644
G1 X120.556 Y224.885 E36.90706
G1 X119.936 Y224.926 E36.92772
G1 X119.687 Y224.935 E36.93601
G1 X119.317 Y224.942 E36.94832
G1 X117.682 Y224.944 E37.0027
G1 X112.858 Y224.942 E37.16315
G1 X112.155 Y224.932 E37.18653
G1 X111.236 Y224.879 E37.21715
G1 X110.325 Y224.746 E37.24777
